svg/us/or/portland.svg

<svg xmlns="http://www.w3.org/2000/svg" width="600" height="360"><path fill="#fff" d="M0 0h600v360H0z"/><path fill="#027f45" d="M0 0h180v145H0zM300 0h300v95H300zM0 265h230v95H0zM350 215h250v145H350z"/><path d="M200 0v165H0M280 0v115h320M0 245h250v115m350-165H330v165" fill="none" stroke="#f3c120" stroke-width="20"/><path d="M220 0v175a40 40 0 0 0 40-40V0zM600 135H270a40 40 0 0 0 40 40h290zM0 225h260a40 40 0 0 0-40-40H0zM310 360V185a40 40 0 0 0-40 40v135z" fill="#4579b3"/></svg>

<?xml version="1.0" encoding="UTF-8"?>
<svg xmlns="http://www.w3.org/2000/svg" width="600" height="360">
	<rect width="600" height="360" fill="#fff"/>
	<rect width="180" height="145" fill="#027f45"/>
	<rect x="300" width="300" height="95" fill="#027f45"/>
	<rect y="265" width="230" height="95" fill="#027f45"/>
	<rect x="350" y="215" width="250" height="145" fill="#027f45"/>
	<path d="M 200,0 V 165 H 0 M 280,0 V 115 H 600 M 0,245 H 250 V 360 M 600,195 H 330 V 360" fill="none" stroke="#f3c120" stroke-width="20"/>
	<path d="M 220,0 V 175 a 40 40 0 0 0 40,-40 V 0 z" fill="#4579b3"/>
	<path d="M 600,135 H 270 a 40 40 0 0 0 40,40 H 600 z" fill="#4579b3"/>
	<path d="M 0,225 H 260 a 40 40 0 0 0 -40,-40 H 0 z" fill="#4579b3"/>
	<path d="M 310,360 V 185 a 40 40 0 0 0 -40,40 V 360 z" fill="#4579b3"/>
</svg>
